-----BEGIN PGP PUBLIC KEY BLOCK-----

mQINBGmjXKABEAChYyBEgCUVJj+7x2QgPfRkGC24rMthHCwe9rGvalvqj5NJQq4E
4Np4xUQ8tyIVUeaWmu1uLjQ7X41m1SfHA4C7gDgxsYVELgBEZtow1Ue1y8KrrC3R
4TS4vZZjtmCjDD3pTS602ktK1ZI9Xg6KDtka6EZyAMVwGTjQ9afueaXFgxgiR50n
PD5Aco9WLnbQc6DBruCeOEr2VONAXezWnCw2H9QoiURxPYme9BSOSc6rV17RfnUV
LCt+uMkETnUlOQ3L8qZMp3FwD/vJwt6/pXpshoVEt1Z1ycxaB2JI2fjc7EpzSPv0
wIkhds7RXwGWiYQCwT56bcLmSsP2fm//JEm0dZkr3YIDIUR0pD0Akg9CM1j+rePH
8MINQU+KmIW1dhswdjuAdgtUqeSBRdce4H0GRjmTrUohneFAF+bIBaxfJ6YXMfLG
c8cWM2OlZbYw/7n619cjvL3BnHzV9dK5gSD09A93c9rj+9abFwspBQmR+z2XJlFe
SB6+9uDK5ayF8Mqf6dmVm2TcXBs1vpcNB/AY4XAOu48iWF8gUViXpHMiawD0UmQq
YlZevhDxIxpE7erL9pw9uWjyja5MptNOZ/xsLLsqkni1zip8ylX18Y8Jp55+1/R5
NwO64ZxldZfVL4EmdQijb6qHpUMA++OQ4ozMDtHCBHjTiEbFXbFU2CuKEQARAQAB
tChoZWFsdGhjaGVja2QgPGhlYWx0aGNoZWNrZEBqb24uc3ByaWcuZ3M+iQJSBBMB
CgA8FiEE8N191MCSeyE0DXrhJU7x4Wnc/2YFAmmjXKADGy8EBQsJCAcCAiICBhUK
CQgLAgQWAgMBAh4HAheAAAoJECVO8eFp3P9mf/UP/0xRxn7HTtZlk0xZuNe5TZPn
j6hlh/LQzdCJAYmXMv5UoxI6O91rbSWW1wDKNihMy9w5lyK2g2sHrNb9Brsi9u9y
+Hb1Klx5wYVRvPeDFzZzhNKr1EiM0SSt/ukN6aJJKnE/mkPta3+ueZugNIEOMB4d
wNiVmcDEwO7xksItxgtnazoa9s3EyWDodPOqdwOs22ebg6+i7tBYCgoOWcVTv8UC
n7epa2vwgTZxu4FUjh3R7nPnk9Q1a9u+NAE4uTZ2G1DznvYPIuBr4uIS2MqVyktz
gqnS4a26gYwdvf2xkdDsycX6+hhN+3cQThtnzObJNR95w4dN1ezj4oSEcfBwxb42
CarYpQyETDWUQn5AQ/tUPAYgv9VkHABkW7B2UGkApXrUC3vq69J9rPhTTJLxEgIr
n+kKQ9JDcJ1dj7aqg6JhkaZtjv0JqS1gcI4lz0LsgAV2e/c5NpN7lRaxgpOjQTMr
vAMyBpMv1ZeyBU9KsHWqdbOLeHE+BamyO0a13iQHaLcuS4V3lgzZdJUlMiSrP/fm
HrQGGh1NQ3y7dimhBgkeJnVRlRJd1QI9pK2eeFQ12zhuR7Qz68ei7inNWcJFhkCE
loebAfx91ZciWjrmhWl8YE3PiRwFEhzYZoEibmHg7s4MzjwKuFzt23degKLeFCYx
ukVKT1E+ihvG1BIW8tTguQINBGmjXKABEAC8aK7cTkjgHWjCiRvc0I9ueQNOdajl
Dj9kOiE0wYp1FKGFP5g7RJneCGl1YjWnyJbhvkz2DNC6SuJTQ8bUrXj+ea9znkSy
/Ry6Tyoq3IvqJT1MypI4lnFFTfKUfaUoo8Kzg8TFFRf5Cfil0xNilGVmFkIYc8xU
wfv0rdcDzAeQwh78+MszMoHBj/ts9f9ZERQMYktf5G4VBEht5W87RxHGyeFwnrzZ
nXIzzpRX25GvF24zfcNqd0Yyu9dPT55tAwNrHUpHDVBQatwvYbeWutgU7nYXCi1b
ULqxo5ryj5aVQFeVy2tdZfPm4LXEAFDw91tU/ns0GfKGSop5gvwp1AUNXktZTny8
srb4+4GGxWhfJ8SRZsUlk07QqLhywKlErGegV73bL9s4awbYeCk5a7+4YRzLG2I8
mVZDT61zGdaQoAkjtD/6lYgBfygX0Nj1//bT0BRgeT3EBZZI7GCiPMekYD6gehwe
wgKwz/r1Geqz4NtGOGojPBszDp6tfwOPJHxICiXRP7uPEIfqv7u+2uXZpbf7d+p0
heEoQHep5guR57TaYYoka3mWBtnX5hMTe+NZ/9K4FETniBcON9TQjbidPGsslqXV
PPtVyVpHItAhVVZO1ao8RHQwxjocFP+LXLHA9ItvQaUG4t7aBrWUQqQ06e2pmMKS
8SEF/ZzsBdEJpwARAQABiQRsBBgBCgAgFiEE8N191MCSeyE0DXrhJU7x4Wnc/2YF
AmmjXKACGy4CQAkQJU7x4Wnc/2bBdCAEGQEKAB0WIQQmsQifPUCLlxWJEu9Cnfpp
fq30SgUCaaNcoAAKCRBCnfppfq30StA/D/4qhF4dxc6Faih7mD5V5QvORU+/FZSj
trAqN7ZkfQEClI/484gTU5HfaBKDPy6L/UfUDiNgKdd5IwvluX0wROBjk4oXWHQe
g3WuQzciu5auBRvKiur9ak5coBQA9aE5Lovhn2BZ1tCAPnfH2TS75MczUaGWoiH/
QGAyctevGwc4OrluvMGLf6aYz0gTo9XYluRJngM309tUrRovJ3ivNTE6Tctq+My5
4BJULen7EtOISCu0XYquaw6ycH5I9wV5DARWXSQKulnbeon3v1L9cnGD78fXeL/A
4UibYsHkDsRxmJXWGvFAR4DYpzJK7/a62rJX79tvXH+4TBSPUFg82WltVxqBAdhE
x34qdcXMnyRYbnjTju9M3ZPHWjaANVAUZBZSyfLKhoXgGkgIrfF3/+BIfzpUm0YC
QBYLSNbWjBmF/MTzxPmKMe9LJlJoLRPVfKAdy8QTaOfKHsjkkrZp6J0W8FFoSkHJ
MOha7ih0r3y4PlyuUCTIoaLjCWAhrjoZwpC2AIJrsAdll8wSnL5unpGR5giLc6Uy
xahf8Ah7tqaxA7AVhjv9FKA0M46hr6TQzs81mhlyKdgqyw4K4xcasjnNP12nJCXY
GNLpW2egugQ5C/UcXAKorsETldgijitu57urffsTPXawiWKKlgTDuca1JZX8Y/HV
qaZXaqtIAbEURXliEACdwYCeJLFLjitc8F7gga9TuNxp5GbAjesJZJibHZbQ2icR
vSFlQV51/I6/ZLE9PmNSmMtIsknWh6bnbfoa1DtmCe2IWiiVMTzYbMKo9lvpY8Jq
Srjs/W06Ol+anDj05eQJ0uufCMjwiZd8IVdPLL3ScgFG0aA9C8vkIj3yE6HEy45d
5h4X22M0W9rK3ebU/NxpMvvIFVjahjKIp3Z3YYKWdo5e3q5+rtqRaRvBIdso4FpO
ewn4QHdbFv1bQHh81dKJUq2R3zOHQjixyQ44IaOvTyC7tGd/NVb/Y2szpF/ib/42
ra2Lx1U33qwvf53RePF+1Lca1aoyUmJ4enFkvFJpSrBGKQCzfLReryaVF1zpJPsP
pTGoxw8P43e5+RbigFnDfXNBCxcxbJMXZ+EQavy6JmltoO5r5qAJKRvIPNebuCPk
1I5ejmHyiUC1pvrHV0vUy/VQ2bGKVR1UnY57Fkfck0zvUrXdJmyS5TQ//2HJ5lyn
/HVOEDrGQitrtWR+Ikucn1BSuhcfcIkICK1aCrmLiZYGOvFH3K9pEIMav/GKII0c
AxlxBg8hO85JWpYRLTyGOtjuO4oY8fuPYDOkxzWwqRg3ylaCuWGvQ52VQo7/0ROr
Xaf68kIFalspISGGnvmWiEeUx+pCdBeIcVUnuFXZ9Fdxc3uXa5N98IfS2bbd6A==
=Mr4P
-----END PGP PUBLIC KEY BLOCK-----
